web/themes/custom/oh_my_pasta/images/icons/eye.svg

<svg width="41" height="26" viewBox="0 0 41 26" fill="#004A36" xmlns="http://www.w3.org/2000/svg">
<path d="M20.6667 8C17.9001 8 15.6667 10.2333 15.6667 13C15.6667 15.7667 17.9001 18 20.6667 18C23.4334 18 25.6667 15.7667 25.6667 13C25.6667 10.2333 23.4334 8 20.6667 8Z"/>
<path d="M20.6667 0C11.5758 0 3.8122 5.39067 0.666748 13C3.8122 20.6093 11.5758 26 20.6667 26C29.7577 26 37.5213 20.6093 40.6667 13C37.5213 5.39067 29.7577 0 20.6667 0ZM20.6667 21.6667C15.6486 21.6667 11.5758 17.784 11.5758 13C11.5758 8.216 15.6486 4.33333 20.6667 4.33333C25.6849 4.33333 29.7577 8.216 29.7577 13C29.7577 17.784 25.6849 21.6667 20.6667 21.6667Z"/>
</svg>

<svg width="41" height="26" fill="#004A36" xmlns="http://www.w3.org/2000/svg"><path d="M20.667 8c-2.767 0-5 2.233-5 5s2.233 5 5 5c2.766 0 5-2.233 5-5s-2.234-5-5-5z"/><path d="M20.667 0c-9.091 0-16.855 5.39-20 13 3.145 7.61 10.909 13 20 13 9.09 0 16.854-5.39 20-13-3.146-7.61-10.91-13-20-13zm0 21.667c-5.018 0-9.091-3.883-9.091-8.667s4.073-8.667 9.09-8.667c5.019 0 9.092 3.883 9.092 8.667s-4.073 8.667-9.091 8.667z"/></svg>
